assets/images/icons/src/arrows-h.svg

<?xml version="1.0" encoding="utf-8"?>
<!-- Generated by IcoMoon.io -->
<!DOCTYPE svg PUBLIC "-//W3C//DTD SVG 1.1//EN" "http://www.w3.org/Graphics/SVG/1.1/DTD/svg11.dtd">
<svg version="1.1" xmlns="http://www.w3.org/2000/svg" xmlns:xlink="http://www.w3.org/1999/xlink" width="14" height="14" viewBox="0 0 14 14">
<path fill="#444444" d="M14 7q0 0.203-0.148 0.352l-2 2q-0.148 0.148-0.352 0.148t-0.352-0.148-0.148-0.352v-1h-8v1q0 0.203-0.148 0.352t-0.352 0.148-0.352-0.148l-2-2q-0.148-0.148-0.148-0.352t0.148-0.352l2-2q0.148-0.148 0.352-0.148t0.352 0.148 0.148 0.352v1h8v-1q0-0.203 0.148-0.352t0.352-0.148 0.352 0.148l2 2q0.148 0.148 0.148 0.352z"></path>
</svg>

<svg xmlns="http://www.w3.org/2000/svg" width="14" height="14" viewBox="0 0 14 14"><path fill="#444" d="M14 7q0 .203-.148.352l-2 2q-.148.148-.352.148t-.352-.148T11 9V8H3v1q0 .203-.148.352T2.5 9.5t-.352-.148l-2-2Q0 7.204 0 7t.148-.352l2-2Q2.296 4.5 2.5 4.5t.352.148T3 5v1h8V5q0-.203.148-.352T11.5 4.5t.352.148l2 2Q14 6.796 14 7z"/></svg>
